React/src/assets/images/frontend/typescript.svg

<svg width="130" height="130" viewBox="0 0 130 130" fill="none" xmlns="http://www.w3.org/2000/svg">
<path fill-rule="evenodd" clip-rule="evenodd" d="M118.04 118.04H11.96V11.96H118.04V118.04ZM17.16 17.16V112.84H112.84V17.16H17.16Z" fill="#0288D1"/>
<path fill-rule="evenodd" clip-rule="evenodd" d="M90.948 61.841C90.3377 61.8391 89.7772 61.8546 89.3584 61.8942C86.0842 62.1789 83.0258 63.609 80.9326 65.834C79.8838 66.9489 78.934 68.5474 78.4699 69.9782C77.9584 71.5552 77.9621 71.5249 77.9647 73.9954C77.9673 77.1513 78.1277 77.9331 79.2015 80.0321C80.2811 82.1428 81.9261 83.8668 84.2996 85.3751C85.3397 86.0361 88.0033 87.3644 90.1785 88.3066C94.9133 90.3576 96.4112 91.3039 97.1062 92.6837L97.3931 93.2533V94.4465C97.3931 95.5975 97.3886 95.6567 97.1544 96.1313C96.6204 97.2296 95.3597 98.1288 93.7453 98.5633C93.135 98.7273 92.8552 98.7505 91.4909 98.751C90.1555 98.751 89.8313 98.7236 89.2192 98.5711C88.1506 98.301 87.2503 97.9268 86.5464 97.4607C85.6847 96.89 83.9901 95.1792 83.3008 94.1839C82.9966 93.7444 82.6911 93.3845 82.6227 93.3845C82.5093 93.3845 76.6668 96.7247 75.6471 97.3723C75.3033 97.5909 75.2163 97.6902 75.2163 97.8653C75.2163 98.2283 76.5813 100.292 77.6507 101.545C79.8291 104.098 84.198 106.35 88.0678 106.914C89.5975 107.136 92.1386 107.208 93.9139 107.078C95.0771 106.992 96.2528 106.772 97.5162 106.401C102.087 105.06 105.206 102.212 106.361 98.3218C106.833 96.7349 107.023 94.7832 106.868 93.1366C106.548 89.7582 105.51 87.3698 103.46 85.301C101.557 83.38 98.9434 81.8323 93.7857 79.5709C89.314 77.6101 88.1469 76.8487 87.5023 75.4712C86.9459 74.2822 87.0519 72.6458 87.7519 71.6289C88.5708 70.4386 90.2428 69.8506 92.1072 70.0975C93.8408 70.3265 94.962 71.0136 96.0605 72.5188C96.6308 73.3005 97.0268 73.7076 97.2167 73.7076C97.4039 73.7076 98.2104 73.2099 100.714 71.5479C103.262 69.8561 104.064 69.2822 104.119 69.1091C104.204 68.8409 103.804 68.2133 102.636 66.7799C100.29 63.9025 97.532 62.375 93.9911 61.9917C93.1215 61.8975 91.9657 61.8451 90.9486 61.8419L90.948 61.841ZM62.777 62.3292C60.6748 62.3279 58.2736 62.3291 55.6054 62.3318C41.7685 62.3454 38.557 62.3682 38.4704 62.4575C38.3861 62.5417 38.3643 63.39 38.3643 66.5567V70.5495L44.6565 70.5723L50.9488 70.595L50.9501 88.4058C50.9506 98.2018 50.9728 106.3 51.0034 106.401L51.0507 106.586H55.6236C59.7178 106.586 60.2014 106.577 60.2462 106.456C60.2735 106.385 60.2935 98.2873 60.2935 88.4614V70.5957L66.5858 70.573L72.878 70.5502V66.5093C72.878 63.0068 72.8644 62.4582 72.7551 62.3904C72.6972 62.3539 69.0821 62.3321 62.7755 62.3289L62.777 62.3292Z" fill="#0288D1"/>
</svg>

<svg width="130" height="130" fill="none" xmlns="http://www.w3.org/2000/svg"><path fill-rule="evenodd" clip-rule="evenodd" d="M118.04 118.04H11.96V11.96h106.08v106.08zM17.16 17.16v95.68h95.68V17.16H17.16z" fill="#0288D1"/><path fill-rule="evenodd" clip-rule="evenodd" d="M90.948 61.841c-.61-.002-1.17.014-1.59.053-3.274.285-6.332 1.715-8.425 3.94-1.05 1.115-1.999 2.713-2.463 4.144-.512 1.577-.508 1.547-.505 4.017.002 3.156.163 3.938 1.236 6.037 1.08 2.11 2.725 3.835 5.099 5.343 1.04.661 3.703 1.99 5.879 2.932 4.734 2.05 6.232 2.997 6.927 4.377l.287.57v1.192c0 1.151-.004 1.21-.239 1.685-.534 1.099-1.794 1.998-3.409 2.432-.61.164-.89.188-2.254.188-1.335 0-1.66-.027-2.272-.18-1.068-.27-1.969-.644-2.673-1.11-.861-.571-2.556-2.282-3.245-3.277-.304-.44-.61-.8-.678-.8-.114 0-5.956 3.34-6.976 3.988-.344.219-.43.318-.43.493 0 .363 1.364 2.427 2.434 3.68 2.178 2.553 6.547 4.805 10.417 5.369 1.53.222 4.07.294 5.846.164a17.152 17.152 0 003.602-.677c4.571-1.341 7.69-4.189 8.845-8.08.472-1.586.662-3.538.507-5.184-.32-3.379-1.358-5.767-3.408-7.836-1.903-1.921-4.517-3.469-9.674-5.73-4.472-1.96-5.64-2.722-6.284-4.1-.556-1.189-.45-2.825.25-3.842.819-1.19 2.49-1.778 4.355-1.532 1.734.23 2.855.917 3.954 2.422.57.781.966 1.189 1.156 1.189.187 0 .993-.498 3.497-2.16 2.548-1.692 3.35-2.266 3.405-2.439.085-.268-.315-.896-1.483-2.33-2.346-2.876-5.104-4.404-8.645-4.787a31.495 31.495 0 00-3.042-.15l-.001-.001zm-28.171.488c-2.102-.001-4.503 0-7.172.003-13.836.013-17.048.036-17.135.126-.084.084-.106.932-.106 4.099v3.992l6.293.023 6.292.023.001 17.81c0 9.797.023 17.895.053 17.996l.048.185h4.573c4.094 0 4.577-.009 4.622-.13.027-.071.047-8.169.047-17.995V70.596l6.293-.023 6.292-.023v-4.04c0-3.503-.014-4.052-.123-4.12-.058-.036-3.673-.058-9.98-.061h.002z" fill="#0288D1"/></svg>
